src/topics/icons/debian.svg

<svg height="317" preserveAspectRatio="xMidYMid" viewBox="0 0 256 317" width="256" xmlns="http://www.w3.org/2000/svg"><g fill="#a80030"><path d="m152.796616 167.425369c-5.250945.073052.993501 2.70583 7.848657 3.760694 1.893496-1.478563 3.611669-2.974659 5.142829-4.429845-4.269132 1.046097-8.614238 1.069474-12.991486.669151"/><path d="m180.979901 160.400733c3.126606-4.315885 5.405814-9.040859 6.209381-13.926546-.701295 3.483098-2.591868 6.489899-4.371405 9.663259-9.815204 6.18016-.923371-3.67011-.005843-7.413271-10.554488 13.283692-1.449343 7.96554-1.832133 11.676558"/><path d="m191.382441 133.330754c.634087-9.455792-1.861354-6.466522-2.699986-2.857777.978892.508439 1.753238 6.665223 2.699986 2.857777"/><path d="m132.885687 4.08796433c2.802257.50259461 6.054512.88830676 5.59867 1.55745889 3.065244-.67207419 3.760694-1.29155127-5.59867-1.55745889"/><path d="m138.484357 5.64542322-1.981158.40908864 1.843821-.16363546z"/><path d="m225.86569 136.916123c.312662 8.491511-2.483751 12.611619-5.005491 19.905084l-4.537962 2.26752c-3.71394 7.211649.359414 4.578871-2.299662 10.314878-5.797371 5.154518-17.593734 16.129781-21.369037 17.132049-2.755505-.061364 1.867196-3.252255 2.472064-4.502898-7.760996 5.329841-6.226914 8.000605-18.096329 11.238249l-.347725-.771424c-29.273214 13.771677-69.936625-13.520379-69.401887-50.759134-.312662 2.363948-.888307 1.773691-1.537005 2.729206-1.510706-19.159959 8.848003-38.404657 26.31901-46.262081 17.088217-8.4593687 37.121872-4.9879594 49.362388 6.419769-6.723663-8.8070934-20.106706-18.1430806-35.967658-17.2693841-15.536601.2454531-30.070936 10.1190996-34.921559 20.8372221-7.959696 5.011336-8.883067 19.31775-12.3515547 21.935917-4.6665325 34.296238 8.7778737 49.114013 31.5202797 66.544111 3.579525 2.413623 1.008111 2.778881 1.493174 4.616858-7.556453-3.538616-14.475894-8.880146-20.165148-15.41972 3.018489 4.418157 6.276588 8.713588 10.487279 12.088569-7.123986-2.413623-16.641142-17.26354-19.420022-17.868407 12.281426 21.988515 49.826996 38.562449 69.486627 30.339767-9.096378.336037-20.653132.187012-30.874503-3.591213-4.29251-2.209079-10.130789-6.785028-9.087612-7.641192 26.83037 10.022671 54.546125 7.591516 77.761906-11.019095 5.905486-4.599325 12.357399-12.424606 14.221674-12.532722-2.808101 4.222378.479218 2.030833-1.677264 5.759383 5.885033-9.490856-2.556803-3.862966 6.083733-16.389844l3.190891 4.39478c-1.186357-7.877878 9.783064-17.444707 8.669757-29.904379 2.515896-3.810369 2.808102 4.099652.137337 12.865838 3.705174-9.724621.97597-11.287925 1.928561-19.311906 1.028566 2.697063 2.378559 5.563606 3.071087 8.409694-2.413623-9.397351 2.477909-15.825886 3.687642-21.28722-1.192201-.528893-3.725629 4.155172-4.304197-6.945741.08474-4.821401 1.341226-2.527583 1.826289-3.71394-.946748-.543504-3.430501-4.239912-4.941207-11.3288333 1.095774-1.6655751 2.927906 4.3188073 4.418158 4.5642603-.958437-5.6366569-2.609402-9.9350097-2.676609-14.2596611-4.353872-9.0993001-1.539926 1.2126557-5.072699-3.9067964-4.63439-14.4554393 3.845433-3.3545268 4.418158-9.9233216 7.024636 10.1775409 11.030782 25.9508301 12.868759 32.4845601-1.402589-7.9655403-3.670109-15.6827053-6.437302-23.1485729 2.133105.8970729-3.436345-16.3898442 2.773037-4.9412064-6.633081-24.4050594-28.38783-47.208829-48.40103-57.909419 2.448688 2.2412214 5.540229 5.0551668 4.429845 5.4963982-9.952542-5.9259412-8.202228-6.3876269-9.628193-8.8918339-8.108721-3.2990076-8.640537.2659077-14.011287.0058442-15.282382-8.10579919-18.22782-7.243791-32.291704-12.32233424l.639932 2.98926913c-10.124944-3.37205922-11.796363 1.27986303-22.739484.01168825-.66623-.52012699 3.506475-1.88180775 6.939897-2.38148029-9.788907 1.29155127-9.330144-1.92856073-18.908662.35649152 2.361026-1.65680898 4.856467-2.75258213 7.375284-4.16101587-7.983073.48506224-19.057687 4.64607812-15.638875.8620082-13.0207061 5.80905868-36.1459025 13.9645329-49.1227786 26.1319979l-.4090886-2.7262836c-5.9463955 7.1385968-25.9303756 21.3193622-27.5228992 30.5647655l-1.5896016.3711018c-3.0944633 5.2392566-5.0960756 11.1768861-7.5506074 16.5680899-4.0470555 6.8960656-5.9317853 2.653232-5.3561391 3.7343948-7.95969616 16.1385468-11.91324561 29.6998348-15.32913575 40.8212028 2.43407741 3.637966.05844123 21.900852.97889068 36.517005-3.99738042 72.186612 50.66270587 142.275184 110.41010157 158.457561 8.757419 3.132451 21.781048 3.012647 32.858584 3.334073-13.070382-3.737316-14.759334-1.981157-27.490756-6.41977-9.184041-4.32465-11.197341-9.262935-17.701851-14.908358l2.574337 4.549649c-12.7577214-4.514585-7.4191147-5.586981-17.7982779-8.8743l2.7496601-3.591214c-4.1347174-.31266-10.9518873-6.969118-12.8161626-10.653837l-4.5233516.178246c-5.4350348-6.706133-8.3307979-11.539223-8.1204095-15.282384l-1.4610308 2.603558c-1.656809-2.843166-19.9956683-25.150186-10.4814354-19.957682-1.7678474-1.6159-4.117185-2.629855-6.6652227-7.258401l1.9373269-2.214922c-4.5788708-5.890877-8.427226-13.441485-8.1350198-15.957379 2.4428435 3.299007 4.1376393 3.915562 5.8149028 4.47952-11.5625982-28.688802-12.2112959-1.580835-20.9687148-29.203085l1.8525871-.149025c-1.420122-2.13895-2.2821302-4.461988-3.4246564-6.741197l.8064891-8.035669c-8.3249538-9.625271-2.3288832-40.926396-1.1279159-58.093509.8327876-6.980805 6.9486628-14.411609 11.6005851-26.0647904l-2.8343999-.4879844c5.4175024-9.4499475 30.9329452-37.9517374 42.7497628-36.4848624 5.7243189-7.1911939-1.1366821-.0262986-2.2558317-1.8379768 12.5736315-13.0119408 16.527181-9.1928062 25.0128483-11.5333777 9.1518978-5.4321126-7.8545019 2.1184948-3.5152402-2.0717416 15.820042-4.0412115 11.21195-9.1869621 31.850472-11.2382494 2.176937 1.2389542-5.052244 1.9139504-6.866844 3.5210844 13.181419-6.4489902 41.71243-4.9821153 60.244146 3.5795256 21.503452 10.0489702 45.663058 39.7546495 46.61565 67.7041697l1.084085.292206c-.549348 11.109679 1.70064 23.957985-2.19739 35.760191z"/><path d="m95.4832973 174.634096-.7363595 3.681798c3.4509549 4.686987 6.1889272 9.76553 10.5953962 13.429795-3.170437-6.188927-5.5256188-8.745731-9.8590367-17.111593"/><path d="m103.641693 174.312669c-1.826288-2.019145-2.90745-4.450299-4.1171844-6.872689 1.1571364 4.257444 3.5269284 7.915865 5.7330854 11.63565z"/><path d="m248.00323 142.93557-.771424 1.934405c-1.414278 10.046049-4.467832 19.986903-9.148975 29.203086 5.172048-9.724623 8.51781-20.360927 9.920399-31.137491"/><path d="m133.923019 1.56914713c3.550305-1.30031745 8.728198-.71298305 12.494736-1.56914713-4.909064.4120107-9.794751.65746388-14.619075 1.27986303z"/><path d="m9.2824769 67.8473509c.8181773 7.5739839-5.69802033 10.5135779 1.4434985 5.5197744 3.8279008-8.623004-1.49609563-2.3814802-1.4434985-5.5197744"/><path d="m.89031567 102.900403c1.64512074-5.0493226 1.94317104-8.0824227 2.57141431-11.0044844-4.54672802 5.8119808-2.09219618 7.050935-2.57141431 11.0044844"/></g></svg>

<?xml version="1.0" encoding="UTF-8" standalone="no"?>
<svg width="256px" height="317px" viewBox="0 0 256 317" version="1.1" xmlns="http://www.w3.org/2000/svg" xmlns:xlink="http://www.w3.org/1999/xlink" preserveAspectRatio="xMidYMid">
	<g fill="#A80030">
		<path d="M152.796616,167.425369 C147.545671,167.498421 153.790117,170.131199 160.645273,171.186063 C162.538769,169.7075 164.256942,168.211404 165.788102,166.756218 C161.51897,167.802315 157.173864,167.825692 152.796616,167.425369"></path>
		<path d="M180.979901,160.400733 C184.106507,156.084848 186.385715,151.359874 187.189282,146.474187 C186.487987,149.957285 184.597414,152.964086 182.817877,156.137446 C173.002673,162.317606 181.894506,152.467336 182.812034,148.724175 C172.257546,162.007867 181.362691,156.689715 180.979901,160.400733"></path>
		<path d="M191.382441,133.330754 C192.016528,123.874962 189.521087,126.864232 188.682455,130.472977 C189.661347,130.981416 190.435693,137.1382 191.382441,133.330754"></path>
		<path d="M132.885687,4.08796433 C135.687944,4.59055894 138.940199,4.97627109 138.484357,5.64542322 C141.549601,4.97334903 142.245051,4.35387195 132.885687,4.08796433"></path>
		<path d="M138.484357,5.64542322 L136.503199,6.05451186 L138.34702,5.8908764 L138.484357,5.64542322"></path>
		<path d="M225.86569,136.916123 C226.178352,145.407634 223.381939,149.527742 220.860199,156.821207 L216.322237,159.088727 C212.608297,166.300376 216.681651,163.667598 214.022575,169.403605 C208.225204,174.558123 196.428841,185.533386 192.653538,186.535654 C189.898033,186.47429 194.520734,183.283399 195.125602,182.032756 C187.364606,187.362597 188.898688,190.033361 177.029273,193.271005 L176.681548,192.499581 C147.408334,206.271258 106.744923,178.979202 107.279661,141.740447 C106.966999,144.104395 106.391354,143.514138 105.742656,144.469653 C104.23195,125.309694 114.590659,106.064996 132.061666,98.207572 C149.149883,89.7482033 169.183538,93.2196126 181.424054,104.627341 C174.700391,95.8202476 161.317348,86.4842604 145.456396,87.3579569 C129.919795,87.60341 115.38546,97.4770565 110.534837,108.195179 C102.575141,113.206515 101.65177,127.512929 98.1832823,130.131096 C93.5167498,164.427334 106.961156,179.245109 129.703562,196.675207 C133.283087,199.08883 130.711673,199.454088 131.196736,201.292065 C123.640283,197.753449 116.720842,192.411919 111.031588,185.872345 C114.050077,190.290502 117.308176,194.585933 121.518867,197.960914 C114.394881,195.547291 104.877725,180.697374 102.098845,180.092507 C114.380271,202.081022 151.925841,218.654956 171.585472,210.432274 C162.489094,210.768311 150.93234,210.619286 140.710969,206.841061 C136.418459,204.631982 130.58018,200.056033 131.623357,199.199869 C158.453727,209.22254 186.169482,206.791385 209.385263,188.180774 C215.290749,183.581449 221.742662,175.756168 223.606937,175.648052 C220.798836,179.87043 224.086155,177.678885 221.929673,181.407435 C227.814706,171.916579 219.37287,177.544469 228.013406,165.017591 L231.204297,169.412371 C230.01794,161.534493 240.987361,151.967664 239.874054,139.507992 C242.38995,135.697623 242.682156,143.607644 240.011391,152.37383 C243.716565,142.649209 240.987361,141.085905 241.939952,133.061924 C242.968518,135.758987 244.318511,138.62553 245.011039,141.471618 C242.597416,132.074267 247.488948,125.645732 248.698681,120.184398 C247.50648,119.655505 244.973052,124.33957 244.394484,113.238657 C244.479224,108.417256 245.73571,110.711074 246.220773,109.524717 C245.274025,108.981213 242.790272,105.284805 241.279566,98.1958837 C242.37534,96.5303086 244.207472,102.514691 245.697724,102.760144 C244.739287,97.1234871 243.088322,92.8251343 243.021115,88.5004829 C238.667243,79.4011828 241.481189,89.7131386 237.948416,84.5936865 C233.314026,70.1382472 241.793849,81.2391597 242.366574,74.6703649 C249.39121,84.8479058 253.397356,100.621195 255.235333,107.154925 C253.832744,99.1893847 251.565224,91.4722197 248.798031,84.0063521 C250.931136,84.903425 245.361686,67.6165079 251.571068,79.0651457 C244.937987,54.6600863 223.183238,31.8563167 203.170038,21.1557267 C205.618726,23.3969481 208.710267,26.2108935 207.599883,26.6521249 C197.647341,20.7261837 199.397655,20.264498 197.97169,17.760291 C189.862969,14.4612834 189.331153,18.0261987 183.960403,17.7661352 C168.678021,9.66033601 165.732583,10.5223442 151.668699,5.44380096 L152.308631,8.43307009 C142.183687,5.06101087 140.512268,9.71293312 129.569147,8.44475834 C128.902917,7.92463135 133.075622,6.56295059 136.509044,6.06327805 C126.720137,7.35482932 127.1789,4.13471732 117.600382,6.41976957 C119.961408,4.76296059 122.456849,3.66718744 124.975666,2.2587537 C116.992593,2.74381594 105.917979,6.90483182 109.336791,3.1207619 C96.3160849,8.92982058 73.1908885,17.0852948 60.2140124,29.2527598 L59.8049238,26.5264762 C53.8585283,33.665073 33.8745482,47.8458384 32.2820246,57.0912417 L30.692423,57.4623435 C27.5979597,62.7016001 25.5963474,68.6392296 23.1418156,74.0304334 C19.0947601,80.926499 17.2100303,76.6836654 17.7856765,77.7648282 C9.82598034,93.903375 5.87243089,107.464663 2.45654075,118.586031 C4.89061816,122.223997 2.51498198,140.486883 3.43543143,155.103036 C-0.561948993,227.289648 54.0981373,297.37822 113.845533,313.560597 C122.602952,316.693048 135.626581,316.573244 146.704117,316.89467 C133.633735,313.157354 131.944783,314.913513 119.213361,310.4749 C110.02932,306.15025 108.01602,301.211965 101.51151,295.566542 L104.085847,300.116191 C91.3281256,295.601606 96.6667323,294.52921 86.2875691,291.241891 L89.0372292,287.650677 C84.9025118,287.338017 78.0853419,280.681559 76.2210666,276.99684 L71.697715,277.175086 C66.2626802,270.468953 63.3669171,265.635863 63.5773055,261.892702 L62.1162747,264.49626 C60.4594657,261.653094 42.1206064,239.346074 51.6348393,244.538578 C49.8669919,242.922678 47.5176543,241.908723 44.9696166,237.280177 L46.9069435,235.065255 C42.3280727,229.174378 38.4797175,221.62377 38.7719237,219.107876 C41.2147672,222.406883 42.909563,223.023438 44.5868265,223.587396 C33.0242283,194.898594 32.3755306,222.006561 23.6181117,194.384311 L25.4706988,194.235286 C24.0505768,192.096336 23.1885686,189.773298 22.0460424,187.494089 L22.8525315,179.45842 C14.5275777,169.833149 20.5236483,138.532024 21.7246156,121.364911 C22.5574032,114.384106 28.6732784,106.953302 33.3252007,95.3001206 L30.4908008,94.8121362 C35.9083032,85.3621887 61.423746,56.8603988 73.2405636,58.3272738 C78.9648825,51.1360799 72.1038815,58.3009752 70.9847319,56.489297 C83.5583634,43.4773562 87.5119129,47.2964908 95.9975802,44.9559193 C105.149478,39.5238067 88.1430783,47.0744141 92.48234,42.8841777 C108.302382,38.8429662 103.69429,33.6972156 124.332812,31.6459283 C126.509749,32.8848825 119.280568,33.5598787 117.465968,35.1670127 C130.647387,28.7180225 159.178398,30.1848974 177.710114,38.7465383 C199.213566,48.7955085 223.373172,78.5011878 224.325764,106.450708 L225.409849,106.742914 C224.860501,117.852593 227.110489,130.700899 223.212459,142.503105 L225.86569,136.916123"></path>
		<path d="M95.4832973,174.634096 L94.7469378,178.315894 C98.1978927,183.002881 100.935865,188.081424 105.342334,191.745689 C102.171897,185.556762 99.8167152,182.999958 95.4832973,174.634096"></path>
		<path d="M103.641693,174.312669 C101.815405,172.293524 100.734243,169.86237 99.5245086,167.43998 C100.681645,171.697424 103.051437,175.355845 105.257594,179.07563 L103.641693,174.312669"></path>
		<path d="M248.00323,142.93557 L247.231806,144.869975 C245.817528,154.916024 242.763974,164.856878 238.082831,174.073061 C243.254879,164.348438 246.600641,153.712134 248.00323,142.93557"></path>
		<path d="M133.923019,1.56914713 C137.473324,0.268829677 142.651217,0.856164081 146.417755,0 C141.508691,0.412010701 136.623004,0.657463884 131.79868,1.27986303 L133.923019,1.56914713"></path>
		<path d="M9.2824769,67.8473509 C10.1006542,75.4213348 3.58445657,78.3609288 10.7259754,73.3671253 C14.5538762,64.7441213 9.22987977,70.9856451 9.2824769,67.8473509"></path>
		<path d="M0.890315672,102.900403 C2.53543641,97.8510804 2.83348671,94.8179803 3.46172998,91.8959186 C-1.08499804,97.7078994 1.3695338,98.9468536 0.890315672,102.900403"></path>
	</g>
</svg>
